src/images/mobile-icons/answer-bubble.svg

<svg viewBox="0 0 512 512" xmlns="http://www.w3.org/2000/svg" xmlns:xlink="http://www.w3.org/1999/xlink">
  <title>answer-bubble</title>
  <path d="M388.503266,85.3300781 C398.62739,85.3300781 408.337619,89.3480427 415.496456,96.5068782 C422.527457,103.537877 426.528758,113.02996 426.66942,122.958106 L426.673258,123.500062 L426.673258,388.499938 C426.673258,398.62406 422.655293,408.334286 415.496456,415.493122 C408.465455,422.524121 398.97337,426.525422 389.045222,426.666083 L388.503266,426.669922 L307.197333,426.669078 L256,490.666667 L204.802333,426.669078 L123.503326,426.669922 C113.55999,426.669922 104.015899,422.794175 96.8960737,415.873621 L96.510136,415.493122 C89.4791352,408.462123 85.4778337,398.97004 85.3371721,389.041894 L85.3333333,388.499938 L85.3333333,123.490062 C85.3333333,113.367672 89.3551231,103.660016 96.5136726,96.5033433 C103.544391,89.4744686 113.035008,85.4745292 122.961463,85.3339155 L123.503326,85.3300781 L388.503266,85.3300781 Z M234.673301,319.99997 L149.33332,319.99997 C137.550328,319.99997 127.998325,329.551971 127.998325,341.33496 C127.998325,353.11795 137.550328,362.66995 149.33332,362.66995 L149.33332,362.66995 L234.673301,362.66995 C246.456293,362.66995 256.008296,353.11795 256.008296,341.33496 C256.008296,329.551971 246.456293,319.99997 234.673301,319.99997 L234.673301,319.99997 Z M362.673272,234.67001 L149.33332,234.67001 C137.553089,234.67001 128.003325,244.219772 128.003325,256 C128.003325,267.780228 137.553089,277.32999 149.33332,277.32999 L149.33332,277.32999 L362.673272,277.32999 C374.453503,277.32999 384.003267,267.780228 384.003267,256 C384.003267,244.219772 374.453503,234.67001 362.673272,234.67001 L362.673272,234.67001 Z M362.673272,149.33005 L149.33332,149.33005 C137.550328,149.33005 127.998325,158.88205 127.998325,170.66504 C127.998325,182.448029 137.550328,192.00003 149.33332,192.00003 L149.33332,192.00003 L362.673272,192.00003 C374.456264,192.00003 384.008267,182.448029 384.008267,170.66504 C384.008267,158.88205 374.456264,149.33005 362.673272,149.33005 L362.673272,149.33005 Z" fill="#000" fill-rule="nonzero" stroke="none" stroke-width="1"></path>
</svg>

<svg viewBox="0 0 512 512" xmlns="http://www.w3.org/2000/svg" xmlns:xlink="http://www.w3.org/1999/xlink">
  <title>answer-bubble</title>
  <path d="M388.503 85.33a38.171 38.171 0 0126.993 11.177 38.17 38.17 0 0111.173 26.451l.004.542v265a38.171 38.171 0 01-11.177 26.993 38.17 38.17 0 01-26.45 11.173l-.543.004h-81.306L256 490.666l-51.198-63.998h-81.299a38.172 38.172 0 01-26.607-10.795l-.386-.38a38.17 38.17 0 01-11.173-26.452l-.004-.542V123.49a38.16 38.16 0 0137.628-38.156l.542-.004h265zM234.673 320h-85.34c-11.783 0-21.335 9.552-21.335 21.335 0 11.783 9.552 21.335 21.335 21.335h85.34c11.783 0 21.335-9.552 21.335-21.335 0-11.783-9.552-21.335-21.335-21.335zm128-85.33h-213.34c-11.78 0-21.33 9.55-21.33 21.33 0 11.78 9.55 21.33 21.33 21.33h213.34c11.78 0 21.33-9.55 21.33-21.33 0-11.78-9.55-21.33-21.33-21.33zm0-85.34h-213.34c-11.783 0-21.335 9.552-21.335 21.335 0 11.783 9.552 21.335 21.335 21.335h213.34c11.783 0 21.335-9.552 21.335-21.335 0-11.783-9.552-21.335-21.335-21.335z" fill="#000" fill-rule="nonzero" stroke="none" stroke-width="1"></path>
</svg>
